collections/phosporicons/bold/equalizer-bold.svg

<svg xmlns="http://www.w3.org/2000/svg" viewBox="0 0 256 256" width="20" height="20"><path fill="none" d="M0 0h256v256H0z"/><path fill="none" stroke="#000" stroke-linecap="round" stroke-linejoin="round" stroke-width="24" d="M36 108h36m-36 40h36m-36 44h36m38-44h36m-36 44h36m38-124h36m-36 40h36m-36 40h36m-36 40h36"/></svg>

<svg xmlns="http://www.w3.org/2000/svg" viewBox="0 0 256 256" width="20" height="20"><path fill="none" d="M0 0h256v256H0z"/><path fill="none" stroke="#000" stroke-linecap="round" stroke-linejoin="round" stroke-width="24" d="M36 108h36M36 148h36M36 192h36M110 148h36M110 192h36M184 68h36M184 108h36M184 148h36M184 188h36"/></svg>
